X: 21
T: Missa Ferialis / Kyrie
N: Derived from Mar1006a-Missa_Ferialis-Kyrie.krn
C: Johannes Martini
%%abc-version 2.0
%%abcx-abcm2ps-target-version 5.9.1 (29 Sep 2008)
%%abc-creator hum2abc beta
%%abcx-conversion-date 2019/02/17 07:19:41
%%abc-edited-by Jesse Rodin
%%abc-edited-by Chris Gage 10-02-2014
%%abcx-initial-encoding-date 2014/10/25/
%%humdrum-veritas 1546995652
%%humdrum-veritas-data 1172666599
%%linebreak <none>
%%barnumbers 0
L: 1/4
M: 2/1
Q: 1/2=120
%%staves [1 2 3 4]
V: 1 clef=treble
V: 2 clef=treble-8
V: 3 clef=treble-8
V: 4 clef=bass
K: C
[V:1] z8 | 
[V:2] c6A2 | 
[V:3] z8 | 
[V:4] z8 | 
[V:1] z8 | 
[V:2] c4B4 | 
[V:3] z8 | 
[V:4] z8 | 
[V:1] c6A2 | 
[V:2] A6GF | 
[V:3] z8 | 
[V:4] z8 | 
[V:1] c4B4 | 
[V:2] E2A4^G2 | 
[V:3] z8 | 
[V:4] z8 | 
[V:1] A4c4- | 
[V:2] A6B2 | 
[V:3] z8 | 
[V:4] z8 | 
[V:1] c2B2G4 | 
[V:2] c2d2B4 | 
[V:3] z8 | 
[V:4] z8 | 
[V:1] A6GF | 
[V:2] A4c4- | 
[V:3] z8 | 
[V:4] z8 | 
[V:1] E4B4 | 
[V:2] c2B2G4 | 
[V:3] z8 | 
[V:4] z8 | 
[V:1] A2c4BA | 
[V:2] A6GF | 
[V:3] c6A2 | 
[V:4] z8 | 
[V:1] G2A4^G2 | 
[V:2] E8 | 
[V:3] c4B4 | 
[V:4] z8 | 
[V:1] A8- | 
[V:2] e8- | 
[V:3] A4c4- | 
[V:4] A,,8 | 
[V:1] A8 | 
[V:2] e4f4 | 
[V:3] c2B2A4- | 
[V:4] C,4D,4 | 
[V:1] B8 | 
[V:2] d8 | 
[V:3] A4^G4 | 
[V:4] B,,8 | 
[V:1] c6BA | 
[V:2] c4e4- | 
[V:3] A4c4 | 
[V:4] A,,8 | 
[V:1] G4c4 | 
[V:2] e2d2c4 | 
[V:3] B4A4 | 
[V:4] E,4F,4 | 
[V:1] B2A2c4- | 
[V:2] f8 | 
[V:3] d4c4 | 
[V:4] D,4A,4- | 
[V:1] c2B2A4- | 
[V:2] e4d4 | 
[V:3] A8 | 
[V:4] A,4F,4 | 
[V:1] A4^G4 | 
[V:2] e8- | 
[V:3] B8 | 
[V:4] E,8 | 
[V:1] A8- | 
[V:2] e8 | 
[V:3] A8- | 
[V:4] A,,8- | 
[V:1] A8 ||  
[V:2] e8 ||  
[V:3] A8 ||  
[V:4] A,,8 ||  
[V:1]  [K:C] [K:clef=treble][M:2/1]c8 | 
[V:2]  [K:C] [K:clef=treble-8][M:2/1]z8 | 
[V:3]  [K:C] [K:clef=treble-8][M:2/1]z8 | 
[V:4]  [K:C] [K:clef=bass][M:2/1]z8 | 
[V:1] B4A4- | 
[V:2] z8 | 
[V:3] z8 | 
[V:4] z8 | 
[V:1] A2GFE3F | 
[V:2] z8 | 
[V:3] c8- | 
[V:4] z8 | 
[V:1] G2A3Bc2 | 
[V:2] z8 | 
[V:3] c8 | 
[V:4] z8 | 
[V:1] dcBA^G3^F | 
[V:2] z8 | 
[V:3] B8 | 
[V:4] z8 | 
[V:1] A2c4BA | 
[V:2] z8 | 
[V:3] A6GF | 
[V:4] z8 | 
[V:1] G4E4 | 
[V:2] z8 | 
[V:3] E3FG2A2- | 
[V:4] C,8 | 
[V:1] D8 | 
[V:2] z8 | 
[V:3] A2^G^F^G4 | 
[V:4] B,,8 | 
[V:1] z8 | 
[V:2] c8- | 
[V:3] A8 | 
[V:4] A,,3B,,C,2D,2 | 
[V:1] z8 | 
[V:2] c8 | 
[V:3] z8 | 
[V:4] E,2F,2G,2A,2- | 
[V:1] d8 | 
[V:2] B8 | 
[V:3] z8 | 
[V:4] A,2^G,^F,G,4 | 
[V:1] c8 | 
[V:2] A2c3de2 | 
[V:3] z8 | 
[V:4] A,4A,,4 | 
[V:1] B4A2c2- | 
[V:2] d2g4fe | 
[V:3] z8 | 
[V:4] B,,4C,4 | 
[V:1] c2BA^G3^F | 
[V:2] fedcB4 | 
[V:3] z8 | 
[V:4] D,4E,4 | 
[V:1] A4E2A2- | 
[V:2] A2c4f2- | 
[V:3] A8- | 
[V:4] A,,3B,,C,2D,2- | 
[V:1] A2G2F4 | 
[V:2] f2e4d2 | 
[V:3] A8- | 
[V:4] D,A,,C,2D,4 | 
[V:1] z2E2F2A2- | 
[V:2] e4z2c2 | 
[V:3] A8- | 
[V:4] A,,2C,2D,2F,2- | 
[V:1] AGG4^F2 | 
[V:2] d2e2d4 | 
[V:3] A8 | 
[V:4] F,E,C,2D,4 | 
[V:1] (3G6A2B4 | 
[V:2] (3B6c2d4 | 
[V:3] G8- | 
[V:4] (3:2:2E,8D,4 | 
[V:1] (3c4d4B4 | 
[V:2] (3e4d6c2 | 
[V:3] G8 | 
[V:4] (3:2:2C,4B,,8 | 
[V:1] c8 | 
[V:2] e8- | 
[V:3] A8- | 
[V:4] A,,8- | 
[V:1] A8 ||  
[V:2] e8 ||  
[V:3] A8 ||  
[V:4] A,,8 ||  
[V:1]  [K:C] [K:clef=treble][M:2/1]A8 | 
[V:2]  [K:C] [K:clef=treble-8][M:2/1]z8 | 
[V:3]  [K:C] [K:clef=treble-8][M:2/1]z8 | 
[V:4]  [K:C] [K:clef=bass][M:2/1]A,,8- | 
[V:1] A8 | 
[V:2] e8- | 
[V:3] z8 | 
[V:4] A,,4B,,4 | 
[V:1] G8 | 
[V:2] e8 | 
[V:3] z8 | 
[V:4] C,8 | 
[V:1] F8 | 
[V:2] d8 | 
[V:3] A8 | 
[V:4] D,8 | 
[V:1] z4E4- | 
[V:2] c8 | 
[V:3] A8 | 
[V:4] A,,8 | 
[V:1] E2F2G4 | 
[V:2] B4c4 | 
[V:3] G8 | 
[V:4] E,8 | 
[V:1] A4c4 | 
[V:2] d4c4 | 
[V:3] F8 | 
[V:4] D,4A,,4 | 
[V:1] B4d4 | 
[V:2] d8 | 
[V:3] z4G4 | 
[V:4] D,4B,,4 | 
[V:1] c3BA4- | 
[V:2] e8- | 
[V:3] A4c4 | 
[V:4] A,,8 | 
[V:1] A2^G2G4 | 
[V:2] e8 | 
[V:3] B8 | 
[V:4] E,8 | 
[V:1] A4c4- | 
[V:2] c8 | 
[V:3] A8 | 
[V:4] F,8 | 
[V:1] c2B2G4 | 
[V:2] z4G4 | 
[V:3] c8 | 
[V:4] E,8 | 
[V:1] F4A4- | 
[V:2] A6B2 | 
[V:3] d6c2 | 
[V:4] D,8 | 
[V:1] A2G2E4 | 
[V:2] c8 | 
[V:3] A4G4 | 
[V:4] C,8 | 
[V:1] D4F4 | 
[V:2] F8 | 
[V:3] B4A4 | 
[V:4] D,8 | 
[V:1] E4G4- | 
[V:2] G6FE | 
[V:3] c6B2 | 
[V:4] E,6D,C, | 
[V:1] G2F2D4 | 
[V:2] D8 | 
[V:3] G4F4 | 
[V:4] B,,8 | 
[V:1] C4F4- | 
[V:2] E4F4 | 
[V:3] A8 | 
[V:4] A,,4D,4 | 
[V:1] F2E2E4- | 
[V:2] G4A4- | 
[V:3] G4E4 | 
[V:4] E,4C,4 | 
[V:1] E2D2D3C | 
[V:2] A4B4 | 
[V:3] F8 | 
[V:4] D,8 | 
[V:1] E8 |]  
[V:2] A8 |]  
[V:3] E8 |]  
[V:4] A,,8 |]  



